src/22/actions/key-enter.svg

<svg xmlns="http://www.w3.org/2000/svg" viewBox="0 0 22 22"><path d="M9 3v7H3v9h16V3H9zm1 1h8v14H4v-7h6V4zm5 1v9h-4v-2l-3 2.5 3 2.5v-2h5V5h-1z" fill="currentColor" color="#5d656b"/></svg>

<svg xmlns="http://www.w3.org/2000/svg" viewBox="0 0 22 22">
  <defs id="defs3051">
    <style type="text/css" id="current-color-scheme">
      .ColorScheme-Text {
        color:#5d656b;
      }
      </style>
  </defs>
 <path 
     style="fill:currentColor;fill-opacity:1;stroke:none" 
     d="M 9 3 L 9 4 L 9 10 L 3 10 L 3 11 L 3 19 L 4 19 L 19 19 L 19 18 L 19 3 L 10 3 L 9 3 z M 10 4 L 18 4 L 18 18 L 4 18 L 4 11 L 9 11 L 10 11 L 10 4 z M 15 5 L 15 14 L 11 14 L 11 12 L 8 14.5 L 11 17 L 11 15 L 16 15 L 16 14 L 16 5 L 15 5 z "
     class="ColorScheme-Text"
     />
</svg>
